file/costco.svg

<svg clip-rule="evenodd" fill-rule="evenodd" stroke-linejoin="round" stroke-miterlimit="1.41421" viewBox="0 0 560 400" xmlns="http://www.w3.org/2000/svg"><g fill-rule="nonzero" transform="matrix(1.63598 0 0 1.63598 112.676 141.439)"><path d="m401.434 311.283c-3.194-3.873-8.83-6.094-15.459-6.094-7.014 0-13.328 2.385-17.701 6.256l.713-4.469-1.896-.564c-2.684-.8-5.664-1.223-8.619-1.223-5.078 0-9.934 1.57-13.857 4.157l1.129-3.72h-30.364l-.36 1.188c-2.698-1.085-5.666-1.625-9.01-1.625-6.251 0-13.017 2.426-16.53 7.097-.23-.342-.471-.679-.739-1.003-3.195-3.873-8.83-6.094-15.46-6.094-6.806 0-12.961 2.244-17.315 5.916l1.695-10.305-1.926-.557c-3.289-.951-6.944-1.454-10.571-1.454-13.306 0-25.417 8.458-27.571 19.254-.917 4.593.154 9.042 3.013 12.529 2.437 2.971 6.036 5.089 10.312 6.171h-13.183v16.862h67.151l.104-.206.013.206h8.083l1.096-1.787-.339 1.787h18.275l.268-1.409c1.606 1.04 3.691 1.605 6.092 1.605 2.146 0 4.137-.445 5.853-1.236l-.197 1.04h25.623l.044-.229c1.188.268 2.436.426 3.628.426.724 0 1.47-.065 2.212-.196h9.769l.725-1.539h.651l.199 1.539h30.13l1.498-7.89h-.55l.206-1.084h.394l1.5-7.889h-.834c.68-.615 1.175-1.405 1.346-2.304.202-1.068-.075-2.155-.76-2.981-.178-.214-.382-.402-.602-.571 2.39-2.455 4.047-5.426 4.691-8.766.787-4.097-.1-7.845-2.57-10.838zm-17.432 33.843h-.925l1.396-7.336c.318-.041.635-.087.949-.137zm-21.564-23.864c-.096.49-.162.974-.211 1.451-2.033 1.36-3.938 2.003-5.976 2.003-1.379 0-2.573-.45-3.194-1.204-.354-.428-.473-.907-.363-1.464.363-1.879 2.912-3.527 5.453-3.527 1.59 0 3.084.562 4.549 1.712-.091.341-.192.68-.258 1.029zm2.058 15.48-.992 1.635-.825-.462c-.543-.305-1.126-.54-1.727-.744.44-.105.851-.223 1.209-.353l1.157-.42 1.137-4.985c.154.214.3.433.47.639 1.716 2.079 4.188 3.669 7.173 4.689zm10.063.69-.395 2.075-.549-2.305c.311.081.623.16.944.23zm9.668-18.693c1.238 0 2.191.329 2.685.926.453.55.437 1.251.34 1.744-.394 2.033-2.481 3.453-5.082 3.453-1.265 0-2.265-.334-2.745-.916-.332-.403-.431-.968-.293-1.681.337-1.752 2.196-3.526 5.095-3.526zm-57.183 19.518c-.356-.241-.743-.454-1.147-.646h1.271zm-6.991 6.867c-.164.146-.431.244-.74.262.158-.136.406-.248.74-.262zm-1.987-26.195-1.508 4.964c-.097-1.326-.51-2.531-1.234-3.603-.299-.439-.655-.839-1.047-1.219zm-43.509 2.479c-.393 2.034-2.483 3.454-5.082 3.454-1.264 0-2.265-.334-2.745-.916-.333-.403-.431-.968-.293-1.681.339-1.753 2.198-3.526 5.096-3.526 1.238 0 2.192.329 2.685.926.452.55.434 1.252.339 1.743zm17.427 16.141-.049.104-.01-.113c.02.002.039.006.059.009zm22.437-6.609-1.761 5.802h-6.763c3.457-1.141 6.557-3.054 8.524-5.802zm.734 6.671h.377c-.14.059-.276.119-.411.182zm-72.76-15.219c-1.93 0-3.602-.634-4.473-1.695-.504-.614-.673-1.294-.517-2.078.504-2.525 3.871-4.658 7.352-4.658 2.35 0 4.527.882 6.653 2.683-.562 1.05-1.009 2.15-1.334 3.297-2.597 1.662-5.05 2.451-7.681 2.451zm39.78 11.955 2.197.989c1.214.546 2.563 1.013 3.975 1.407h-4.087l-.438.877-.056-.877h-7.066c1.976-.607 3.811-1.414 5.475-2.396zm53.546 10.779 1.594-8.384h-7.736l5.421-17.865 1.653.063c-.305.816-.562 1.647-.729 2.504-.771 3.987.166 7.835 2.642 10.834 1.631 1.977 3.871 3.479 6.492 4.463h-6.817l-1.595 8.384zm-86.167-9.011 1.165-.41 1.018-4.326c.163.227.315.457.495.674 1.715 2.079 4.187 3.669 7.171 4.689h-12.338c.933-.175 1.791-.382 2.489-.627zm139.841.627c1.002-.309 1.967-.667 2.894-1.074.136.326.301.641.53.918.049.058.113.102.164.156z" fill="#fff" transform="translate(-208.5 -290.5)"/><g fill="#e31837" transform="translate(-208.5 -290.5)"><path d="m314.348 316.81 6.799-.255-5.705 18.799h12.199l5.703-18.799 6.646.255 2.708-8.926h-25.644zm-25.259 4.881c-1.706 8.815-11.052 14.099-21.292 14.099-10.239 0-17.542-5.283-15.836-14.099 1.67-8.635 11.125-14.244 21.32-14.244 10.194 0 17.478 5.61 15.808 14.244zm-24.87.146c-.605 3.133 1.562 5.283 5.255 5.283 3.695 0 6.693-2.149 7.299-5.283.564-2.914-1.368-5.354-5.241-5.354-3.873-.002-6.749 2.44-7.313 5.354z"/><path d="m285.298 333.276c3.481 1.565 8.195 2.514 12.424 2.514 7.257 0 15.185-3.242 16.453-9.8.902-4.663-2.399-6.922-7.381-7.869l-2.662-.51c-.9-.183-2.385-.328-2.188-1.349.218-1.129 1.84-1.458 2.909-1.458 2.625 0 4.81.911 6.676 2.077l4.654-7.031c-2.978-1.639-6.346-2.403-10.175-2.403-7.301 0-15.263 3.643-16.524 10.164-.832 4.299 2.731 6.594 7.36 7.287l2.378.363c1.078.184 2.66.292 2.42 1.53s-2.231 1.639-3.434 1.639c-2.805 0-5.213-1.129-7.126-2.513l-.545-.401zm81.145-24.7c-2.44-.729-5.213-1.129-7.974-1.129-9.838 0-18.78 6.412-20.331 14.427-1.516 7.833 4.787 13.917 14.359 13.917 2.18 0 6.784-.328 8.893-1.093l2.344-10.273c-2.264 1.566-4.678 2.55-7.483 2.55-3.649 0-6.36-2.332-5.774-5.354.578-2.988 4.02-5.355 7.67-5.355 2.76 0 4.961 1.275 6.633 2.77zm19.532-1.129c-10.194 0-19.649 5.609-21.32 14.244-1.705 8.815 5.598 14.099 15.838 14.099 10.238 0 19.586-5.283 21.291-14.099 1.668-8.634-5.616-14.244-15.809-14.244zm-1.748 9.034c3.873 0 5.806 2.44 5.24 5.354-.605 3.133-3.604 5.283-7.299 5.283s-5.861-2.149-5.255-5.283c.564-2.912 3.441-5.354 7.314-5.354zm-129.121-14.07c-3.045-.881-6.501-1.365-9.944-1.365-12.271 0-23.424 7.75-25.357 17.438-1.889 9.468 5.971 16.821 17.908 16.821 2.721 0 8.464-.396 11.091-1.32l2.923-12.419c-2.821 1.894-5.834 3.083-9.333 3.083-4.553 0-7.932-2.819-7.203-6.475.721-3.61 5.013-6.474 9.565-6.474 3.442 0 6.188 1.542 8.271 3.347z"/><path d="m394.277 334.018c.183-.959 1.252-1.732 2.416-1.732 1.155 0 1.938.773 1.756 1.732-.185.965-1.259 1.738-2.416 1.738-1.163 0-1.938-.774-1.756-1.738zm3.628 0c.146-.772-.408-1.279-1.3-1.279-.906 0-1.638.507-1.783 1.279-.147.773.391 1.285 1.298 1.285.891 0 1.638-.511 1.785-1.285zm-.743.907h-.539l-.339-.769h-.353l-.146.769h-.458l.345-1.816h1.057c.466 0 .718.129.638.556-.061.311-.304.471-.585.493zm-.668-1.116c.229 0 .426 0 .464-.194.03-.16-.168-.16-.397-.16h-.496l-.065.354z"/></g><path d="m103.082 54.27c.956-3.633 4.984-5.967 9.313-5.967 4.5 0 7.714 2.522 6.978 6.403-.753 3.963-4.88 6.337-9.398 6.337-4.348 0-7.498-2.197-7.061-5.89l-1.082 5.694h-5.188l.815-4.29h-3.302l-.815 4.29h-5.188l2.17-11.419-7.005 11.419h-4.697l-.414-6.714h-.177c-.18.64-.338 1.261-.63 1.867l-2.415 4.847h-4.58l-2.841-12.347h5.582l.466 7.369h.118c.241-.753.509-1.539.885-2.276l2.54-5.093h4.127l.624 7.369h.118c.215-.721.457-1.475.787-2.178l2.48-5.191h10.396l-.79 4.159h3.301l.791-4.159h5.188zm38.522 2.155.24.181c.844.622 1.907 1.13 3.146 1.13.531 0 1.41-.181 1.516-.737s-.592-.605-1.066-.688l-1.051-.163c-2.045-.312-3.615-1.344-3.25-3.275.559-2.931 4.072-4.569 7.295-4.569 1.69 0 3.179.345 4.492 1.081l-2.055 3.161c-.824-.524-1.788-.934-2.948-.934-.471 0-1.188.146-1.282.654-.088.458.567.524.965.606l1.176.229c2.197.427 3.656 1.441 3.259 3.537-.048.25-.116.489-.204.718l5.376-8.856h5.954l2.69 11.298 2.147-11.298h5.385l-1.594 8.384h4.521l-.754 3.962h-9.455v.001h-5.699l-.198-1.539h-4.067l-.727 1.539h-5.699l1.333-2.195c-1.388 1.598-3.912 2.391-6.274 2.391-1.822 0-3.849-.406-5.374-1.081l-.168.885h-10.123l2.348-12.347h9.964l-.641 3.374h-4.54l-.225 1.179h4.146l-.609 3.21h-4.146l-.23 1.211h4.697l-.415 2.186zm-73.126 1.282.722 3.14h.047l.004.02h-57.093v-3.16zm118.205 3.14h-10.121l2.347-12.347h9.965l-.642 3.374h-4.541l-.224 1.179h4.146l-.609 3.21h-4.147l-.229 1.211h4.698zm-58.572-.001h-9.905l2.347-12.346h5.385l-1.594 8.384h4.521zm-19.716-6.075c-.269 1.408.688 2.375 2.319 2.375 1.632 0 2.955-.967 3.224-2.375.248-1.311-.604-2.407-2.314-2.407-1.712.001-2.981 1.097-3.229 2.407zm-40.951-1.551.728 3.159h-56.014v-3.159zm92.394-.611h-.197l-1.697 3.767h2.16l-.215-2.178c-.058-.524-.054-1.064-.051-1.589zm-93.474-4.085.505 2.197.247 1.151h-54.958v-3.348z" fill="#005daa"/></g></svg>

<?xml version="1.0" encoding="UTF-8" standalone="no"?>
<!DOCTYPE svg PUBLIC "-//W3C//DTD SVG 1.1//EN" "http://www.w3.org/Graphics/SVG/1.1/DTD/svg11.dtd">
<svg width="100%" height="100%" viewBox="0 0 560 400" version="1.1" xmlns="http://www.w3.org/2000/svg" xmlns:xlink="http://www.w3.org/1999/xlink" xml:space="preserve" xmlns:serif="http://www.serif.com/" style="fill-rule:evenodd;clip-rule:evenodd;stroke-linejoin:round;stroke-miterlimit:1.41421;">
    <g transform="matrix(1.63598,0,0,1.63598,112.676,141.439)">
        <g transform="matrix(1,0,0,1,-208.5,-290.5)">
            <path d="M401.434,311.283C398.24,307.41 392.604,305.189 385.975,305.189C378.961,305.189 372.647,307.574 368.274,311.445L368.987,306.976L367.091,306.412C364.407,305.612 361.427,305.189 358.472,305.189C353.394,305.189 348.538,306.759 344.615,309.346L345.744,305.626L315.38,305.626L315.02,306.814C312.322,305.729 309.354,305.189 306.01,305.189C299.759,305.189 292.993,307.615 289.48,312.286C289.25,311.944 289.009,311.607 288.741,311.283C285.546,307.41 279.911,305.189 273.281,305.189C266.475,305.189 260.32,307.433 255.966,311.105L257.661,300.8L255.735,300.243C252.446,299.292 248.791,298.789 245.164,298.789C231.858,298.789 219.747,307.247 217.593,318.043C216.676,322.636 217.747,327.085 220.606,330.572C223.043,333.543 226.642,335.661 230.918,336.743L217.735,336.743L217.735,353.605L284.886,353.605L284.99,353.399L285.003,353.605L293.086,353.605L294.182,351.818L293.843,353.605L312.118,353.605L312.386,352.196C313.992,353.236 316.077,353.801 318.478,353.801C320.624,353.801 322.615,353.356 324.331,352.565L324.134,353.605L349.757,353.605L349.801,353.376C350.989,353.644 352.237,353.802 353.429,353.802C354.153,353.802 354.899,353.737 355.641,353.606L365.41,353.606L366.135,352.067L366.786,352.067L366.985,353.606L397.115,353.606L398.613,345.716L398.063,345.716L398.269,344.632L398.663,344.632L400.163,336.743L399.329,336.743C400.009,336.128 400.504,335.338 400.675,334.439C400.877,333.371 400.6,332.284 399.915,331.458C399.737,331.244 399.533,331.056 399.313,330.887C401.703,328.432 403.36,325.461 404.004,322.121C404.791,318.024 403.904,314.276 401.434,311.283ZM384.002,345.126L383.077,345.126L384.473,337.79C384.791,337.749 385.108,337.703 385.422,337.653L384.002,345.126ZM362.438,321.262C362.342,321.752 362.276,322.236 362.227,322.713C360.194,324.073 358.289,324.716 356.251,324.716C354.872,324.716 353.678,324.266 353.057,323.512C352.703,323.084 352.584,322.605 352.694,322.048C353.057,320.169 355.606,318.521 358.147,318.521C359.737,318.521 361.231,319.083 362.696,320.233C362.605,320.574 362.504,320.913 362.438,321.262ZM364.496,336.742L363.504,338.377L362.679,337.915C362.136,337.61 361.553,337.375 360.952,337.171C361.392,337.066 361.803,336.948 362.161,336.818L363.318,336.398L364.455,331.413C364.609,331.627 364.755,331.846 364.925,332.052C366.641,334.131 369.113,335.721 372.098,336.741L364.496,336.742ZM374.559,337.432L374.164,339.507L373.615,337.202C373.926,337.283 374.238,337.362 374.559,337.432ZM384.227,318.739C385.465,318.739 386.418,319.068 386.912,319.665C387.365,320.215 387.349,320.916 387.252,321.409C386.858,323.442 384.771,324.862 382.17,324.862C380.905,324.862 379.905,324.528 379.425,323.946C379.093,323.543 378.994,322.978 379.132,322.265C379.469,320.513 381.328,318.739 384.227,318.739ZM327.044,338.257C326.688,338.016 326.301,337.803 325.897,337.611L327.168,337.611L327.044,338.257ZM320.053,345.124C319.889,345.27 319.622,345.368 319.313,345.386C319.471,345.25 319.719,345.138 320.053,345.124ZM318.066,318.929L316.558,323.893C316.461,322.567 316.048,321.362 315.324,320.29C315.025,319.851 314.669,319.451 314.277,319.071L318.066,318.929ZM274.557,321.408C274.164,323.442 272.074,324.862 269.475,324.862C268.211,324.862 267.21,324.528 266.73,323.946C266.397,323.543 266.299,322.978 266.437,322.265C266.776,320.512 268.635,318.739 271.533,318.739C272.771,318.739 273.725,319.068 274.218,319.665C274.67,320.215 274.652,320.917 274.557,321.408ZM291.984,337.549L291.935,337.653L291.925,337.54C291.945,337.542 291.964,337.546 291.984,337.549ZM314.421,330.94L312.66,336.742L305.897,336.742C309.354,335.601 312.454,333.688 314.421,330.94ZM315.155,337.611L315.532,337.611C315.392,337.67 315.256,337.73 315.121,337.793L315.155,337.611ZM242.395,322.392C240.465,322.392 238.793,321.758 237.922,320.697C237.418,320.083 237.249,319.403 237.405,318.619C237.909,316.094 241.276,313.961 244.757,313.961C247.107,313.961 249.284,314.843 251.41,316.644C250.848,317.694 250.401,318.794 250.076,319.941C247.479,321.603 245.026,322.392 242.395,322.392ZM282.175,334.347L284.372,335.336C285.586,335.882 286.935,336.349 288.347,336.743L284.26,336.743L283.822,337.62L283.766,336.743L276.7,336.743C278.676,336.136 280.511,335.329 282.175,334.347ZM335.721,345.126L337.315,336.742L329.579,336.742L335,318.877L336.653,318.94C336.348,319.756 336.091,320.587 335.924,321.444C335.153,325.431 336.09,329.279 338.566,332.278C340.197,334.255 342.437,335.757 345.058,336.741L338.241,336.741L336.646,345.125L335.721,345.126ZM249.554,336.115L250.719,335.705L251.737,331.379C251.9,331.606 252.052,331.836 252.232,332.053C253.947,334.132 256.419,335.722 259.403,336.742L247.065,336.742C247.998,336.567 248.856,336.36 249.554,336.115ZM389.395,336.742C390.397,336.433 391.362,336.075 392.289,335.668C392.425,335.994 392.59,336.309 392.819,336.586C392.868,336.644 392.932,336.688 392.983,336.742L389.395,336.742Z" style="fill:white;fill-rule:nonzero;"/>
        </g>
        <g transform="matrix(1,0,0,1,-208.5,-290.5)">
            <path d="M314.348,316.81L321.147,316.555L315.442,335.354L327.641,335.354L333.344,316.555L339.99,316.81L342.698,307.884L317.054,307.884L314.348,316.81ZM289.089,321.691C287.383,330.506 278.037,335.79 267.797,335.79C257.558,335.79 250.255,330.507 251.961,321.691C253.631,313.056 263.086,307.447 273.281,307.447C283.475,307.447 290.759,313.057 289.089,321.691ZM264.219,321.837C263.614,324.97 265.781,327.12 269.474,327.12C273.169,327.12 276.167,324.971 276.773,321.837C277.337,318.923 275.405,316.483 271.532,316.483C267.659,316.481 264.783,318.923 264.219,321.837Z" style="fill:rgb(227,24,55);fill-rule:nonzero;"/>
            <path d="M285.298,333.276C288.779,334.841 293.493,335.79 297.722,335.79C304.979,335.79 312.907,332.548 314.175,325.99C315.077,321.327 311.776,319.068 306.794,318.121L304.132,317.611C303.232,317.428 301.747,317.283 301.944,316.262C302.162,315.133 303.784,314.804 304.853,314.804C307.478,314.804 309.663,315.715 311.529,316.881L316.183,309.85C313.205,308.211 309.837,307.447 306.008,307.447C298.707,307.447 290.745,311.09 289.484,317.611C288.652,321.91 292.215,324.205 296.844,324.898L299.222,325.261C300.3,325.445 301.882,325.553 301.642,326.791C301.402,328.029 299.411,328.43 298.208,328.43C295.403,328.43 292.995,327.301 291.082,325.917L290.537,325.516L285.298,333.276ZM366.443,308.576C364.003,307.847 361.23,307.447 358.469,307.447C348.631,307.447 339.689,313.859 338.138,321.874C336.622,329.707 342.925,335.791 352.497,335.791C354.677,335.791 359.281,335.463 361.39,334.698L363.734,324.425C361.47,325.991 359.056,326.975 356.251,326.975C352.602,326.975 349.891,324.643 350.477,321.621C351.055,318.633 354.497,316.266 358.147,316.266C360.907,316.266 363.108,317.541 364.78,319.036L366.443,308.576ZM385.975,307.447C375.781,307.447 366.326,313.056 364.655,321.691C362.95,330.506 370.253,335.79 380.493,335.79C390.731,335.79 400.079,330.507 401.784,321.691C403.452,313.057 396.168,307.447 385.975,307.447ZM384.227,316.481C388.1,316.481 390.033,318.921 389.467,321.835C388.862,324.968 385.863,327.118 382.168,327.118C378.473,327.118 376.307,324.969 376.913,321.835C377.477,318.923 380.354,316.481 384.227,316.481ZM255.106,302.411C252.061,301.53 248.605,301.046 245.162,301.046C232.891,301.046 221.738,308.796 219.805,318.484C217.916,327.952 225.776,335.305 237.713,335.305C240.434,335.305 246.177,334.909 248.804,333.985L251.727,321.566C248.906,323.46 245.893,324.649 242.394,324.649C237.841,324.649 234.462,321.83 235.191,318.174C235.912,314.564 240.204,311.7 244.756,311.7C248.198,311.7 250.944,313.242 253.027,315.047L255.106,302.411Z" style="fill:rgb(227,24,55);fill-rule:nonzero;"/>
            <path d="M394.277,334.018C394.46,333.059 395.529,332.286 396.693,332.286C397.848,332.286 398.631,333.059 398.449,334.018C398.264,334.983 397.19,335.756 396.033,335.756C394.87,335.756 394.095,334.982 394.277,334.018ZM397.905,334.018C398.051,333.246 397.497,332.739 396.605,332.739C395.699,332.739 394.967,333.246 394.822,334.018C394.675,334.791 395.213,335.303 396.12,335.303C397.011,335.303 397.758,334.792 397.905,334.018ZM397.162,334.925L396.623,334.925L396.284,334.156L395.931,334.156L395.785,334.925L395.327,334.925L395.672,333.109L396.729,333.109C397.195,333.109 397.447,333.238 397.367,333.665C397.306,333.976 397.063,334.136 396.782,334.158L397.162,334.925ZM396.494,333.809C396.723,333.809 396.92,333.809 396.958,333.615C396.988,333.455 396.79,333.455 396.561,333.455L396.065,333.455L396,333.809L396.494,333.809Z" style="fill:rgb(227,24,55);fill-rule:nonzero;"/>
        </g>
        <path d="M103.082,54.27C104.038,50.637 108.066,48.303 112.395,48.303C116.895,48.303 120.109,50.825 119.373,54.706C118.62,58.669 114.493,61.043 109.975,61.043C105.627,61.043 102.477,58.846 102.914,55.153L101.832,60.847L96.644,60.847L97.459,56.557L94.157,56.557L93.342,60.847L88.154,60.847L90.324,49.428L83.319,60.847L78.622,60.847L78.208,54.133L78.031,54.133C77.851,54.773 77.693,55.394 77.401,56L74.986,60.847L70.406,60.847L67.565,48.5L73.147,48.5L73.613,55.869L73.731,55.869C73.972,55.116 74.24,54.33 74.616,53.593L77.156,48.5L81.283,48.5L81.907,55.869L82.025,55.869C82.24,55.148 82.482,54.394 82.812,53.691L85.292,48.5L95.688,48.5L94.898,52.659L98.199,52.659L98.99,48.5L104.178,48.5L103.082,54.27ZM141.604,56.425L141.844,56.606C142.688,57.228 143.751,57.736 144.99,57.736C145.521,57.736 146.4,57.555 146.506,56.999C146.612,56.443 145.914,56.394 145.44,56.311L144.389,56.148C142.344,55.836 140.774,54.804 141.139,52.873C141.698,49.942 145.211,48.304 148.434,48.304C150.124,48.304 151.613,48.649 152.926,49.385L150.871,52.546C150.047,52.022 149.083,51.612 147.923,51.612C147.452,51.612 146.735,51.758 146.641,52.266C146.553,52.724 147.208,52.79 147.606,52.872L148.782,53.101C150.979,53.528 152.438,54.542 152.041,56.638C151.993,56.888 151.925,57.127 151.837,57.356L157.213,48.5L163.167,48.5L165.857,59.798L168.004,48.5L173.389,48.5L171.795,56.884L176.316,56.884L175.562,60.846L166.107,60.846L166.107,60.847L160.408,60.847L160.21,59.308L156.143,59.308L155.416,60.847L149.717,60.847L151.05,58.652C149.662,60.25 147.138,61.043 144.776,61.043C142.954,61.043 140.927,60.637 139.402,59.962L139.234,60.847L129.111,60.847L131.459,48.5L141.423,48.5L140.782,51.874L136.242,51.874L136.017,53.053L140.163,53.053L139.554,56.263L135.408,56.263L135.178,57.474L139.875,57.474L139.46,59.66L141.604,56.425ZM68.478,57.707L69.2,60.847L69.247,60.847L69.251,60.867L12.158,60.867L12.158,57.707L68.478,57.707ZM186.683,60.847L176.562,60.847L178.909,48.5L188.874,48.5L188.232,51.874L183.691,51.874L183.467,53.053L187.613,53.053L187.004,56.263L182.857,56.263L182.628,57.474L187.326,57.474L186.683,60.847ZM128.111,60.846L118.206,60.846L120.553,48.5L125.938,48.5L124.344,56.884L128.865,56.884L128.111,60.846ZM108.395,54.771C108.126,56.179 109.083,57.146 110.714,57.146C112.346,57.146 113.669,56.179 113.938,54.771C114.186,53.46 113.334,52.364 111.624,52.364C109.912,52.365 108.643,53.461 108.395,54.771ZM67.444,53.22L68.172,56.379L12.158,56.379L12.158,53.22L67.444,53.22ZM159.838,52.609L159.641,52.609L157.944,56.376L160.104,56.376L159.889,54.198C159.831,53.674 159.835,53.134 159.838,52.609ZM66.364,48.524L66.869,50.721L67.116,51.872L12.158,51.872L12.158,48.524L66.364,48.524Z" style="fill:rgb(0,93,170);fill-rule:nonzero;"/>
    </g>
</svg>
